COLOR/places 16/16/network-server.svg

<svg height="16" viewBox="0 0 4.2333332 4.233333" width="16" xmlns="http://www.w3.org/2000/svg" xmlns:xlink="http://www.w3.org/1999/xlink"><linearGradient id="a" gradientTransform="matrix(0 -.00953665 -.00953638 0 5.211957 297.24053)" gradientUnits="userSpaceOnUse" x1="469.12317" x2="25.221653" y1="320.84778" y2="320.84778"><stop offset="0" stop-color="#999"/><stop offset=".61328125" stop-color="#b7b7b7"/><stop offset="1" stop-color="#dbdbdb"/></linearGradient><g transform="translate(0 -292.76669)"><path d="m2.9205413 292.89896c.1879812 0 .3369311.004.4635369.0253.1266057.0213.2372545.0628.31936.1447.082106.0819.1236292.19211.1446953.31884.021061.12673.024686.2761.02376.46457v1.03095 1.03146c.0007937.18817-.00273.33746-.02376.46405-.021061.12673-.062587.23693-.1446953.31885-.082108.0819-.1927516.12344-.31936.14469-.1266085.0213-.2755557.0253-.4635369.0253h-1.5368587c-.1879812 0-.3366453-.004-.4630208-.0253-.126373-.0213-.2370244-.0627-.3188441-.14469-.081812-.082-.1229493-.19231-.1441768-.31885-.02122-.12654-.025321-.2757-.025321-.46405v-1.03146-1.03147c0-.18835.0041-.33751.025321-.46405.02122-.12654.062362-.23689.1441768-.31884.08182-.082.1924711-.12343.3188441-.1447.1263755-.0213.2750396-.0253.4630208-.0253z" fill="url(#a)"/><circle cx="1.226189" cy="295.01566" opacity=".3" r=".264583"/><rect fill="#a6d74f" height=".264583" rx=".264583" width=".264583" x="1.093898" y="294.88336"/><circle cx="1.226189" cy="296.07397" opacity=".3" r=".264583"/><rect fill="#a6d74f" height=".264583" rx=".264583" width=".264583" x="1.093898" y="295.94168"/><rect height=".264583" opacity=".25" rx=".264583" width=".264583" x="1.887648" y="293.56042"/><rect height=".264583" opacity=".25" rx=".264583" width=".264583" x="1.887648" y="294.88336"/><rect height=".264583" opacity=".25" rx=".264583" width=".264583" x="1.887648" y="295.94168"/><circle cx="1.226189" cy="293.69272" opacity=".3" r=".264583"/><rect fill="#a6d74f" height=".264583" rx=".264583" width=".264583" x="1.093898" y="293.56042"/><path d="m5.2304688.5c-.7104802 0-1.2723603.01519918-1.75.09570312-.4776303.08039056-.8958372.23695373-1.2050782.54687498-.3092213.3097323-.4647203.7268167-.5449218 1.2050781-.0802054.4782615-.0957032 1.0420322-.0957032 1.7539063v.5c0-.7118741.0154978-1.2756448.0957032-1.7539063.0802015-.4782614.2357005-.8953458.5449218-1.2050781.309241-.3099213.7274479-.4664844 1.2050782-.546875.4776397-.0805039 1.0395198-.0957031 1.75-.0957031h5.8085932c.710481 0 1.273443.0151992 1.751954.0957031.478509.080504.896711.2373317 1.207031.546875.310322.3095433.467255.7260986.546875 1.2050781.079601.4789796.093343 1.0435318.089844 1.7558594v-.5c.003499-.7123276-.010243-1.2768798-.089844-1.7558594-.07962-.4789795-.236553-.8955348-.546875-1.2050781-.31032-.3095433-.728522-.46637103-1.207031-.54687498-.478511-.08050394-1.041473-.09570312-1.751954-.09570312z" fill="#fff" opacity=".3" stroke-width="3.779528" transform="matrix(.26458332 0 0 .26458332 0 292.76669)"/><path d="m2.9209054 296.86773c.18798 0 .33664-.004.46302-.0253.12637-.0213.23702-.0627.31884-.14469.0818-.082.12296-.19231.14418-.31885.0212-.12654.0253-.2757.0253-.46405v-.13229c0 .18835-.004.33751-.0253.46405-.0212.12654-.0624.2369-.14418.31885-.0818.082-.19247.12342-.31884.14469-.12638.0213-.27504.0253-.46302.0253h-1.53686c-.18798 0-.33693-.004-.46353996-.0253-.1266-.0213-.23725-.0628-.31936-.14469-.0821-.0819-.12363-.19212-.14469-.31885-.0211-.12673-.0247-.2761-.0238-.46457v.13229c-.00093.18847.003.33784.0238.46457.0211.12673.0626.23695.14469.31885.0821.0819.19276.12339.31936.14469.12660996.0213.27555996.0253.46353996.0253z" opacity=".2"/></g></svg>

<?xml version="1.0" encoding="UTF-8" standalone="no"?>
<svg
   xmlns:dc="http://purl.org/dc/elements/1.1/"
   xmlns:cc="http://creativecommons.org/ns#"
   xmlns:rdf="http://www.w3.org/1999/02/22-rdf-syntax-ns#"
   xmlns:svg="http://www.w3.org/2000/svg"
   xmlns="http://www.w3.org/2000/svg"
   xmlns:sodipodi="http://sodipodi.sourceforge.net/DTD/sodipodi-0.dtd"
   xmlns:inkscape="http://www.inkscape.org/namespaces/inkscape"
   height="16"
   viewBox="0 0 4.2333332 4.233333"
   width="16"
   version="1.1"
   id="svg51"
   sodipodi:docname="network-server.svg"
   inkscape:version="0.92.4 (5da689c313, 2019-01-14)">
  <metadata
     id="metadata57">
    <rdf:RDF>
      <cc:Work
         rdf:about="">
        <dc:format>image/svg+xml</dc:format>
        <dc:type
           rdf:resource="http://purl.org/dc/dcmitype/StillImage" />
      </cc:Work>
    </rdf:RDF>
  </metadata>
  <defs
     id="defs55" />
  <sodipodi:namedview
     pagecolor="#ffffff"
     bordercolor="#666666"
     borderopacity="1"
     objecttolerance="10"
     gridtolerance="10"
     guidetolerance="10"
     inkscape:pageopacity="0"
     inkscape:pageshadow="2"
     inkscape:window-width="1920"
     inkscape:window-height="1016"
     id="namedview53"
     showgrid="false"
     inkscape:zoom="14.75"
     inkscape:cx="8"
     inkscape:cy="8"
     inkscape:window-x="0"
     inkscape:window-y="27"
     inkscape:window-maximized="1"
     inkscape:current-layer="g49" />
  <linearGradient
     id="a"
     gradientUnits="userSpaceOnUse"
     x1="328"
     x2="328"
     y1="237"
     y2="251">
    <stop
       offset="0"
       stop-color="#fff"
       id="stop2" />
    <stop
       offset=".125"
       stop-color="#fff"
       stop-opacity=".098039"
       id="stop4" />
    <stop
       offset=".92500001"
       stop-color="#fff"
       stop-opacity=".098039"
       id="stop6" />
    <stop
       offset="1"
       stop-color="#fff"
       stop-opacity=".498039"
       id="stop8" />
  </linearGradient>
  <clipPath
     id="b">
    <path
       d="m325.09646 237c-2.80769 0-3.10979.28839-3.09603 3.10176v3.89824 3.89824c-.0138 2.81337.28834 3.10176 3.09603 3.10176h5.8075c2.8077 0 3.09604-.28835 3.09604-3.10176v-3.89824-3.89824c0-2.8134-.28835-3.10176-3.09604-3.10176z"
       id="path11" />
  </clipPath>
  <linearGradient
     id="c"
     gradientTransform="matrix(0 -.00953665 -.00953638 0 5.211957 297.24053)"
     gradientUnits="userSpaceOnUse"
     x1="469.12317"
     x2="25.221653"
     y1="320.84778"
     y2="320.84778">
    <stop
       offset="0"
       stop-color="#999"
       id="stop14" />
    <stop
       offset=".61328125"
       stop-color="#b7b7b7"
       id="stop16" />
    <stop
       offset="1"
       stop-color="#dbdbdb"
       id="stop18" />
  </linearGradient>
  <g
     transform="translate(0 -292.76669)"
     id="g49">
    <path
       d="m2.9205413 292.89896c.1879812 0 .3369311.004.4635369.0253.1266057.0213.2372545.0628.31936.1447.082106.0819.1236292.19211.1446953.31884.021061.12673.024686.2761.02376.46457v1.03095 1.03146c.0007937.18817-.00273.33746-.02376.46405-.021061.12673-.062587.23693-.1446953.31885-.082108.0819-.1927516.12344-.31936.14469-.1266085.0213-.2755557.0253-.4635369.0253h-1.5368587c-.1879812 0-.3366453-.004-.4630208-.0253-.126373-.0213-.2370244-.0627-.3188441-.14469-.081812-.082-.1229493-.19231-.1441768-.31885-.02122-.12654-.025321-.2757-.025321-.46405v-1.03146-1.03147c0-.18835.0041-.33751.025321-.46405.02122-.12654.062362-.23689.1441768-.31884.08182-.082.1924711-.12343.3188441-.1447.1263755-.0213.2750396-.0253.4630208-.0253z"
       fill="url(#c)"
       id="path23"
       style="fill:#999999;fill-opacity:1" />
    <circle
       cx="1.226189"
       cy="295.01566"
       opacity=".3"
       r=".264583"
       id="circle25" />
    <rect
       fill="#a6d74f"
       height=".264583"
       rx=".264583"
       width=".264583"
       x="1.093898"
       y="294.88336"
       id="rect27" />
    <circle
       cx="1.226189"
       cy="296.07397"
       opacity=".3"
       r=".264583"
       id="circle29" />
    <rect
       fill="#a6d74f"
       height=".264583"
       rx=".264583"
       width=".264583"
       x="1.093898"
       y="295.94168"
       id="rect31" />
    <rect
       height=".264583"
       opacity=".25"
       rx=".264583"
       width=".264583"
       x="1.887648"
       y="293.56042"
       id="rect33" />
    <rect
       height=".264583"
       opacity=".25"
       rx=".264583"
       width=".264583"
       x="1.887648"
       y="294.88336"
       id="rect35" />
    <rect
       height=".264583"
       opacity=".25"
       rx=".264583"
       width=".264583"
       x="1.887648"
       y="295.94168"
       id="rect37" />
    <circle
       cx="1.226189"
       cy="293.69272"
       opacity=".3"
       r=".264583"
       id="circle39" />
    <rect
       fill="#a6d74f"
       height=".264583"
       rx=".264583"
       width=".264583"
       x="1.093898"
       y="293.56042"
       id="rect41" />
    <path
       style="fill:#ffffff;fill-opacity:1;stroke-width:3.77952766;opacity:0.3"
       d="M 5.2304688 0.5 C 4.5199886 0.5 3.9581085 0.51519918 3.4804688 0.59570312 C 3.0028385 0.67609368 2.5846316 0.83265685 2.2753906 1.1425781 C 1.9661693 1.4523104 1.8106703 1.8693948 1.7304688 2.3476562 C 1.6502634 2.8259177 1.6347656 3.3896884 1.6347656 4.1015625 L 1.6347656 4.6015625 C 1.6347656 3.8896884 1.6502634 3.3259177 1.7304688 2.8476562 C 1.8106703 2.3693948 1.9661693 1.9523104 2.2753906 1.6425781 C 2.5846316 1.3326568 3.0028385 1.1760937 3.4804688 1.0957031 C 3.9581085 1.0151992 4.5199886 1 5.2304688 1 L 11.039062 1 C 11.749543 1 12.312505 1.0151992 12.791016 1.0957031 C 13.269525 1.1762071 13.687727 1.3330348 13.998047 1.6425781 C 14.308369 1.9521214 14.465302 2.3686767 14.544922 2.8476562 C 14.624523 3.3266358 14.638265 3.891188 14.634766 4.6035156 L 14.634766 4.1035156 C 14.638265 3.391188 14.624523 2.8266358 14.544922 2.3476562 C 14.465302 1.8686767 14.308369 1.4521214 13.998047 1.1425781 C 13.687727 0.8330348 13.269525 0.67620707 12.791016 0.59570312 C 12.312505 0.51519918 11.749543 0.5 11.039062 0.5 L 5.2304688 0.5 z "
       transform="matrix(0.26458332,0,0,0.26458332,0,292.76669)"
       id="path864" />
    <path
       id="path869"
       d="m 2.9209054,296.86773 c 0.18798,0 0.33664,-0.004 0.46302,-0.0253 0.12637,-0.0213 0.23702,-0.0627 0.31884,-0.14469 0.0818,-0.082 0.12296,-0.19231 0.14418,-0.31885 0.0212,-0.12654 0.0253,-0.2757 0.0253,-0.46405 v -0.13229 c 0,0.18835 -0.004,0.33751 -0.0253,0.46405 -0.0212,0.12654 -0.0624,0.2369 -0.14418,0.31885 -0.0818,0.082 -0.19247,0.12342 -0.31884,0.14469 -0.12638,0.0213 -0.27504,0.0253 -0.46302,0.0253 h -1.53686 c -0.18798,0 -0.33693,-0.004 -0.46353996,-0.0253 -0.1266,-0.0213 -0.23725,-0.0628 -0.31936,-0.14469 -0.0821,-0.0819 -0.12363,-0.19212 -0.14469,-0.31885 -0.0211,-0.12673 -0.0247,-0.2761 -0.0238,-0.46457 v 0.13229 c -9.3e-4,0.18847 0.003,0.33784 0.0238,0.46457 0.0211,0.12673 0.0626,0.23695 0.14469,0.31885 0.0821,0.0819 0.19276,0.12339 0.31936,0.14469 0.12660996,0.0213 0.27555996,0.0253 0.46353996,0.0253 z"
       style="opacity:0.2;fill:#000000;fill-opacity:1;stroke-width:1"
       inkscape:connector-curvature="0" />
  </g>
</svg>
